app/images/instagram.svg

<svg width="30" height="30" viewBox="0 0 30 30" fill="none" xmlns="http://www.w3.org/2000/svg">
<g clip-path="url(#clip0)">
<path d="M15.0046 7.29749C10.7509 7.29749 7.30713 10.745 7.30713 14.995C7.30713 19.2487 10.7546 22.6925 15.0046 22.6925C19.2584 22.6925 22.7021 19.245 22.7021 14.995C22.7021 10.7412 19.2546 7.29749 15.0046 7.29749ZM15.0046 19.9912C12.2434 19.9912 10.0084 17.755 10.0084 14.995C10.0084 12.235 12.2446 9.99874 15.0046 9.99874C17.7646 9.99874 20.0009 12.235 20.0009 14.995C20.0021 17.755 17.7659 19.9912 15.0046 19.9912Z" fill="#2F3035"/>
<path d="M21.1848 0.095454C18.4248 -0.033296 11.5885 -0.027046 8.82605 0.095454C6.39855 0.209204 4.2573 0.795454 2.53105 2.5217C-0.353954 5.4067 0.0147958 9.29421 0.0147958 14.9955C0.0147958 20.8305 -0.310204 24.628 2.53105 27.4692C5.4273 30.3642 9.37104 29.9855 15.0048 29.9855C20.7848 29.9855 22.7798 29.9892 24.8235 29.198C27.6023 28.1192 29.6998 25.6355 29.9048 21.1742C30.0348 18.413 30.0273 11.578 29.9048 8.81546C29.6573 3.5492 26.831 0.355454 21.1848 0.095454ZM25.5535 25.5605C23.6623 27.4517 21.0385 27.283 14.9685 27.283C8.71854 27.283 6.2123 27.3755 4.38355 25.5417C2.2773 23.4455 2.65855 20.0792 2.65855 14.9755C2.65855 8.0692 1.9498 3.09545 8.88105 2.74045C10.4735 2.6842 10.9423 2.66545 14.951 2.66545L15.0073 2.70295C21.6685 2.70295 26.8948 2.00545 27.2085 8.93545C27.2798 10.5167 27.296 10.9917 27.296 14.9942C27.2948 21.1717 27.4123 23.693 25.5535 25.5605Z" fill="#2F3035"/>
<path d="M23.0077 8.79245C24.0012 8.79245 24.8065 7.98712 24.8065 6.9937C24.8065 6.00027 24.0012 5.19495 23.0077 5.19495C22.0143 5.19495 21.209 6.00027 21.209 6.9937C21.209 7.98712 22.0143 8.79245 23.0077 8.79245Z" fill="#2F3035"/>
</g>
<defs>
<clipPath id="clip0">
<rect width="30" height="30" fill="white"/>
</clipPath>
</defs>
</svg>

<svg width="30" height="30" viewBox="0 0 30 30" xmlns="http://www.w3.org/2000/svg" fill="none"><path d="M15.005 7.297c-4.254 0-7.697 3.448-7.697 7.698 0 4.254 3.447 7.697 7.697 7.697 4.254 0 7.698-3.447 7.698-7.697 0-4.254-3.448-7.698-7.698-7.698zm0 12.694c-2.761 0-4.996-2.236-4.996-4.996 0-2.76 2.236-4.996 4.996-4.996 2.76 0 4.996 2.236 4.996 4.996.001 2.76-2.235 4.996-4.996 4.996zm6.18-19.896c-2.76-.129-9.596-.122-12.359 0-2.428.114-4.569.7-6.295 2.426-2.885 2.885-2.516 6.773-2.516 12.474 0 5.835-.325 9.633 2.516 12.474 2.896 2.895 6.84 2.516 12.474 2.516 5.78 0 7.775.004 9.819-.787 2.779-1.079 4.876-3.563 5.081-8.024.13-2.761.122-9.596 0-12.359-.248-5.266-3.074-8.46-8.72-8.72zm4.369 25.465c-1.891 1.891-4.515 1.723-10.585 1.723-6.25 0-8.756.092-10.585-1.741-2.106-2.096-1.725-5.462-1.725-10.566 0-6.906-.709-11.88 6.223-12.235 1.592-.056 2.061-.075 6.07-.075l.056.038c6.661 0 11.887-.697 12.201 6.232.071 1.581.087 2.056.087 6.059-.001 6.178.116 8.699-1.742 10.566zm-2.546-16.768c.994 0 1.799-.805 1.799-1.799 0-.993-.805-1.799-1.799-1.799-.993 0-1.799.805-1.799 1.799 0 .993.805 1.799 1.799 1.799z" clip-path="url(#a)" fill="#2F3035"/><defs><clipPath id="a"><path fill="#fff" d="M0 0h30v30h-30z"/></clipPath></defs></svg>
